packages/core/src/svgs/tokens/mono/RXD.svg

<svg width="24" height="24" viewBox="0 0 24 24" fill="none" xmlns="http://www.w3.org/2000/svg">
<path d="M18.7384 19.4023C19.7569 18.473 20.5723 17.3431 21.1336 16.0837C21.6947 14.8242 21.9897 13.4624 21.9997 12.0836C22.0099 10.7049 21.735 9.33886 21.1922 8.07132C20.6495 6.80381 19.8507 5.66212 18.8459 4.71787C17.8413 3.77361 16.6522 3.04718 15.3534 2.58414C14.0547 2.12108 12.6743 1.93142 11.2988 2.02701C9.92328 2.12262 8.58242 2.50142 7.36022 3.13969C6.13803 3.77795 5.06091 4.66188 4.19645 5.73605H2.00734L5.43486 8.93841C5.81013 9.29493 6.3105 9.48874 6.82964 9.48874H12.859C13.7722 9.48874 14.5165 10.1393 14.5165 11.0525C14.5165 11.9656 13.5846 12.6161 12.6715 12.6161H12.0148L15.1357 15.7435C17.206 15.7435 18.8947 13.867 18.8947 11.0525V10.9649C18.8947 9.57922 18.3448 8.25017 17.3655 7.26976C16.3863 6.28933 15.0579 5.7377 13.6722 5.73605H4.85318C5.70226 4.7554 6.74304 3.95887 7.91147 3.39551C9.0799 2.83214 10.3513 2.51384 11.6473 2.46019C12.9434 2.40654 14.2367 2.6187 15.4477 3.08358C16.6586 3.54846 17.7618 4.25624 18.6889 5.16336C19.6161 6.07049 20.3478 7.15778 20.8392 8.35828C21.3304 9.55879 21.571 10.8472 21.5457 12.1441C21.5205 13.441 21.23 14.719 20.6924 15.8995C20.1547 17.08 19.3813 18.1379 18.4194 19.0083L18.7321 19.4023H18.7384ZM4.88446 12.9913L13.1405 21.4352C11.465 21.6349 9.76654 21.3852 8.21948 20.7117C6.67239 20.0381 5.33245 18.965 4.33724 17.6023C3.34202 16.2397 2.72738 14.6368 2.55645 12.958C2.38553 11.2794 2.66445 9.5855 3.36459 8.05025L3.00807 7.61243C2.2075 9.2583 1.87366 11.0923 2.04286 12.9148C2.21208 14.7372 2.87784 16.4784 3.96776 17.9488C5.05767 19.4193 6.52997 20.5626 8.22446 21.2545C9.9189 21.9464 11.7707 22.1602 13.5784 21.873L13.7034 21.9918H20.1457L9.07504 10.7397H5.82265C4.66555 10.7397 4.08387 12.1533 4.89696 12.9852L4.88446 12.9913Z" fill="white"/>
</svg>

<svg xmlns="http://www.w3.org/2000/svg" width="24" height="24" fill="none" viewBox="0 0 24 24">
    <path fill="#fff" d="M18.738 19.402A10.007 10.007 0 1 0 4.196 5.736H2.007l3.428 3.202c.375.357.876.55 1.395.55h6.029c.913 0 1.658.651 1.658 1.565s-.932 1.563-1.845 1.563h-.657l3.12 3.127c2.071 0 3.76-1.876 3.76-4.69v-.088a5.23 5.23 0 0 0-5.223-5.229H4.853A9.507 9.507 0 1 1 18.42 19.008l.313.394zm-13.854-6.41 8.256 8.443a9.51 9.51 0 0 1-10.584-8.477 9.5 9.5 0 0 1 .809-4.908l-.357-.438a10.007 10.007 0 0 0 10.57 14.261l.125.119h6.443L9.075 10.74H5.823c-1.157 0-1.74 1.413-.926 2.245z"/>
</svg>
